dist/img/favicon.svg

<svg width="96" height="96" viewBox="0 0 96 96" fill="none" xmlns="http://www.w3.org/2000/svg">
<g clip-path="url(#clip0_60_40)">
<g clip-path="url(#clip1_60_40)">
<path d="M48 0C21.5133 0 0 21.5133 0 48C0 74.4867 21.5133 96 48 96C74.4867 96 96 74.4867 96 48C96 21.5133 74.4867 0 48 0ZM48 91.8361C23.8265 91.8361 4.16386 72.1735 4.16386 48C4.16386 23.8265 23.8265 4.16386 48 4.16386C72.1735 4.16386 91.8361 23.8265 91.8361 48C91.8361 72.1735 72.1735 91.8361 48 91.8361Z" fill="#0779FF"/>
<path d="M72.9831 37.5904H58.4096V23.0169C58.4096 21.8602 57.4843 20.9349 56.3277 20.9349H39.6723C38.5157 20.9349 37.5904 21.8602 37.5904 23.0169V37.5904H23.0169C21.8602 37.5904 20.9349 38.5157 20.9349 39.6723V56.3277C20.9349 57.4843 21.8602 58.4096 23.0169 58.4096H37.5904V72.9831C37.5904 74.1398 38.5157 75.0651 39.6723 75.0651H56.3277C57.4843 75.0651 58.4096 74.1398 58.4096 72.9831V58.4096H72.9831C74.1398 58.4096 75.0651 57.4843 75.0651 56.3277V39.6723C74.9494 38.5157 74.0241 37.5904 72.9831 37.5904ZM71.0169 54.2458H70.9012H56.3277C55.1711 54.2458 54.2458 55.1711 54.2458 56.3277V70.9012H41.7542V56.3277C41.7542 55.1711 40.8289 54.2458 39.6723 54.2458H25.0988V41.7542H39.6723C40.8289 41.7542 41.7542 40.8289 41.7542 39.6723V25.0988H54.3614V39.6723C54.3614 40.8289 55.2867 41.7542 56.4434 41.7542H71.0169V54.2458Z" fill="#0779FF"/>
</g>
</g>
<defs>
<clipPath id="clip0_60_40">
<rect width="96" height="96" fill="white"/>
</clipPath>
<clipPath id="clip1_60_40">
<rect width="96" height="96" fill="white"/>
</clipPath>
</defs>
</svg>

<svg width="96" height="96" fill="none" xmlns="http://www.w3.org/2000/svg"><g clip-path="url(#a)"><g clip-path="url(#b)" fill="#0779FF"><path d="M48 0C21.513 0 0 21.513 0 48s21.513 48 48 48 48-21.513 48-48S74.487 0 48 0Zm0 91.836C23.826 91.836 4.164 72.174 4.164 48S23.827 4.164 48 4.164c24.174 0 43.836 19.663 43.836 43.836 0 24.174-19.662 43.836-43.836 43.836Z"/><path d="M72.983 37.59H58.41V23.017a2.073 2.073 0 0 0-2.082-2.082H39.672a2.073 2.073 0 0 0-2.082 2.082V37.59H23.017a2.073 2.073 0 0 0-2.082 2.082v16.656c0 1.156.925 2.082 2.082 2.082H37.59v14.573c0 1.157.926 2.082 2.082 2.082h16.656a2.073 2.073 0 0 0 2.082-2.082V58.41h14.573a2.073 2.073 0 0 0 2.082-2.082V39.672c-.116-1.156-1.04-2.082-2.082-2.082Zm-1.966 16.656H56.328a2.073 2.073 0 0 0-2.082 2.082V70.9H41.754V56.328a2.073 2.073 0 0 0-2.082-2.082H25.1V41.754h14.573a2.073 2.073 0 0 0 2.082-2.082V25.1h12.607v14.573c0 1.157.926 2.082 2.082 2.082h14.574v12.492Z"/></g></g><defs><clipPath id="a"><path fill="#fff" d="M0 0h96v96H0z"/></clipPath><clipPath id="b"><path fill="#fff" d="M0 0h96v96H0z"/></clipPath></defs></svg>
